src/lib/assets/icons/systems-prog.svg

<svg width="120" height="120" viewBox="0 0 120 120" fill="none" xmlns="http://www.w3.org/2000/svg">
<path d="M100 100H20C17.3478 100 14.8043 98.9464 12.9289 97.0711C11.0536 95.1957 10 92.6522 10 90V30C10 27.3478 11.0536 24.8043 12.9289 22.9289C14.8043 21.0536 17.3478 20 20 20H100C102.652 20 105.196 21.0536 107.071 22.9289C108.946 24.8043 110 27.3478 110 30V90C110 92.6522 108.946 95.1957 107.071 97.0711C105.196 98.9464 102.652 100 100 100ZM20 30V90H100V30H20ZM90 80H60V70H90V80ZM37.07 80L30 72.93L41.465 61.465L30 50L37.07 42.93L55.605 61.465L37.075 80H37.07Z" fill="#6DD743"/>
</svg>

<svg xmlns="http://www.w3.org/2000/svg" width="120" height="120" fill="none" viewBox="0 0 180 180">
  <path
    fill="#6dd743"
    d="M100 100H20a10 10 0 0 1-10-10V30a10 10 0 0 1 10-10h80a10 10 0 0 1 10 10v60a10.002 10.002 0 0 1-10 10ZM20 30v60h80V30H20Zm70 50H60V70h30v10Zm-52.93 0L30 72.93l11.465-11.465L30 50l7.07-7.07 18.535 18.535L37.075 80h-.005Z"
  />
</svg>
